X: 2249
Q: "Reel."
M: C
L: 1/8
K: G
|:\
[1,3 Be | d2cB (Ac)BA :|\
[2,4 B2 | AcBA G2z2 ::\
b2gb a2fa | g2eg f^dB2 |\
[1 b2gb a2fa | gfga b2(ga) :|\
[2 B2(^df) bagf | agfg e2d2 |]


